svgs/light/signal-bars.svg

<svg xmlns="http://www.w3.org/2000/svg" viewBox="0 0 640 512"><!--! Font Awesome Pro 6.6.0 by @fontawesome - https://fontawesome.com License - https://fontawesome.com/license (Commercial License) Copyright 2024 Fonticons, Inc. --><path d="M576 464l0-416c0-8.8-7.2-16-16-16s-16 7.2-16 16l0 416c0 8.8 7.2 16 16 16s16-7.2 16-16zM512 48c0-26.5 21.5-48 48-48s48 21.5 48 48l0 416c0 26.5-21.5 48-48 48s-48-21.5-48-48l0-416zM416 176c0-8.8-7.2-16-16-16s-16 7.2-16 16l0 288c0 8.8 7.2 16 16 16s16-7.2 16-16l0-288zm-64 0c0-26.5 21.5-48 48-48s48 21.5 48 48l0 288c0 26.5-21.5 48-48 48s-48-21.5-48-48l0-288zM256 464l0-160c0-8.8-7.2-16-16-16s-16 7.2-16 16l0 160c0 8.8 7.2 16 16 16s16-7.2 16-16zM240 256c26.5 0 48 21.5 48 48l0 160c0 26.5-21.5 48-48 48s-48-21.5-48-48l0-160c0-26.5 21.5-48 48-48zM96 432c0-8.8-7.2-16-16-16s-16 7.2-16 16l0 32c0 8.8 7.2 16 16 16s16-7.2 16-16l0-32zm-64 0c0-26.5 21.5-48 48-48s48 21.5 48 48l0 32c0 26.5-21.5 48-48 48s-48-21.5-48-48l0-32z"/></svg>

<svg xmlns="http://www.w3.org/2000/svg" viewBox="0 0 640 512"><!--! Font Awesome Pro 6.4.0 by @fontawesome - https://fontawesome.com License - https://fontawesome.com/license (Commercial License) Copyright 2023 Fonticons, Inc. --><path d="M576 464V48c0-8.8-7.2-16-16-16s-16 7.2-16 16V464c0 8.8 7.2 16 16 16s16-7.2 16-16zM512 48c0-26.5 21.5-48 48-48s48 21.5 48 48V464c0 26.5-21.5 48-48 48s-48-21.5-48-48V48zM416 176c0-8.8-7.2-16-16-16s-16 7.2-16 16V464c0 8.8 7.2 16 16 16s16-7.2 16-16V176zm-64 0c0-26.5 21.5-48 48-48s48 21.5 48 48V464c0 26.5-21.5 48-48 48s-48-21.5-48-48V176zM256 464V304c0-8.8-7.2-16-16-16s-16 7.2-16 16V464c0 8.8 7.2 16 16 16s16-7.2 16-16zM240 256c26.5 0 48 21.5 48 48V464c0 26.5-21.5 48-48 48s-48-21.5-48-48V304c0-26.5 21.5-48 48-48zM96 432c0-8.8-7.2-16-16-16s-16 7.2-16 16v32c0 8.8 7.2 16 16 16s16-7.2 16-16V432zm-64 0c0-26.5 21.5-48 48-48s48 21.5 48 48v32c0 26.5-21.5 48-48 48s-48-21.5-48-48V432z"/></svg>
